X: 39873
T: This Is My Love, Do You Like Her?
R: jig
M: 6/8
K: Adorian
ABA AGE|c2Bc2d|~e3edB|~g3e2d|
def gfe|dBA GAB|cBA dBG|1 ~A3A2G:|2 ~A3A2e||
|:~a3aba|~g3geg|a2a aba|~g3e2d|
def gfe|dBG GAB|cBA dBG|1 ~A3A2e:|2 ~A3A2G||

